ui/StatusQ/src/assets/img/icons/close-white.svg

<svg fill="none" height="16" viewBox="0 0 16 16" width="16" xmlns="http://www.w3.org/2000/svg"><g fill="#fff"><path d="m10.6866 5.31319c.1952.19527.1952.51185 0 .70711l-1.74416 1.74412c-.13017.13017-.13017.34123 0 .4714l1.74416 1.74412c.1952.19526.1952.51186 0 .70706-.1953.1953-.5119.1953-.70715 0l-1.74411-1.74407c-.13018-.13017-.34123-.13017-.47141 0l-1.74404 1.74407c-.19526.1952-.51184.1952-.7071 0-.19526-.1953-.19526-.5119 0-.70714l1.74403-1.74404c.13018-.13017.13018-.34123 0-.4714l-1.74403-1.74404c-.19526-.19526-.19526-.51184 0-.7071.19526-.19527.51184-.19527.7071 0l1.74404 1.74403c.13018.13018.34123.13018.47141 0l1.74411-1.74412c.19525-.19526.51185-.19526.70715 0z"/><path clip-rule="evenodd" d="m7.99967 14.6668c3.68193 0 6.66663-2.9847 6.66663-6.66664 0-3.6819-2.9847-6.66666-6.66663-6.66666-3.68189 0-6.66666 2.98476-6.66666 6.66666 0 3.68194 2.98477 6.66664 6.66666 6.66664zm0-1c3.12963 0 5.66663-2.537 5.66663-5.66664 0-3.12961-2.537-5.66666-5.66663-5.66666-3.12961 0-5.66666 2.53705-5.66666 5.66666 0 3.12964 2.53705 5.66664 5.66666 5.66664z" fill-rule="evenodd"/></g></svg>

<svg width="16" height="16" viewBox="0 0 16 16" fill="none" xmlns="http://www.w3.org/2000/svg">
<path d="M10.6866 5.31319C10.8818 5.50846 10.8818 5.82504 10.6866 6.0203L8.94244 7.76442C8.81227 7.89459 8.81227 8.10565 8.94244 8.23582L10.6866 9.97994C10.8818 10.1752 10.8818 10.4918 10.6866 10.687C10.4913 10.8823 10.1747 10.8823 9.97945 10.687L8.23534 8.94293C8.10516 8.81276 7.89411 8.81276 7.76393 8.94293L6.01989 10.687C5.82463 10.8822 5.50805 10.8822 5.31279 10.687C5.11753 10.4917 5.11753 10.1751 5.31279 9.97986L7.05682 8.23582C7.187 8.10565 7.187 7.89459 7.05682 7.76442L5.31279 6.02038C5.11753 5.82512 5.11753 5.50854 5.31279 5.31328C5.50805 5.11801 5.82463 5.11801 6.01989 5.31328L7.76393 7.05731C7.89411 7.18749 8.10516 7.18749 8.23534 7.05731L9.97945 5.31319C10.1747 5.11793 10.4913 5.11793 10.6866 5.31319Z" fill="#FFFFFF"/>
<path fill-rule="evenodd" clip-rule="evenodd" d="M7.99967 14.6668C11.6816 14.6668 14.6663 11.6821 14.6663 8.00016C14.6663 4.31826 11.6816 1.3335 7.99967 1.3335C4.31778 1.3335 1.33301 4.31826 1.33301 8.00016C1.33301 11.6821 4.31778 14.6668 7.99967 14.6668ZM7.99967 13.6668C11.1293 13.6668 13.6663 11.1298 13.6663 8.00016C13.6663 4.87055 11.1293 2.3335 7.99967 2.3335C4.87006 2.3335 2.33301 4.87055 2.33301 8.00016C2.33301 11.1298 4.87006 13.6668 7.99967 13.6668Z" fill="#FFFFFF"/>
</svg>
